src/images/icon/icon_btn_del.svg

<svg height="20" viewBox="0 0 20 20" width="20" xmlns="http://www.w3.org/2000/svg"><g fill="none" fill-rule="evenodd"><path d="m1.5 3.5h17" stroke="#ff3f3f" stroke-width="1.5"/><path d="m6 3.5 1.70710678-1.70710678c.18753638-.18753638.44189029-.29289322.70710678-.29289322h3.17157284c.2652165 0 .5195704.10535684.7071068.29289322l1.7071068 1.70710678z" fill="#ff3f3f"/><g stroke="#ff3f3f" stroke-width="1.5"><path d="m4 3.5h12v12.5c0 1.1045695-.8954305 2-2 2h-8c-1.1045695 0-2-.8954305-2-2z"/><path d="m8 7v7.5"/><path d="m12 7v7.5"/></g></g></svg>

<?xml version="1.0" encoding="UTF-8"?>
<svg width="20px" height="20px" viewBox="0 0 20 20" version="1.1" xmlns="http://www.w3.org/2000/svg" xmlns:xlink="http://www.w3.org/1999/xlink">
    
    <g id="Dashboard" stroke="none" stroke-width="1" fill="none" fill-rule="evenodd">
        <g id="00-切图" transform="translate(-499.000000, -425.000000)">
            <g id="编组-14" transform="translate(499.000000, 425.000000)">
                <line x1="1.5" y1="3.5" x2="18.5" y2="3.5" id="路径-14" stroke="#FF3F3F" stroke-width="1.5"></line>
                <path d="M6,3.5 L7.70710678,1.79289322 C7.89464316,1.60535684 8.14899707,1.5 8.41421356,1.5 L11.5857864,1.5 C11.8510029,1.5 12.1053568,1.60535684 12.2928932,1.79289322 L14,3.5 L14,3.5 L6,3.5 Z" id="路径-15" fill="#FF3F3F"></path>
                <path d="M4,3.5 L16,3.5 L16,16 C16,17.1045695 15.1045695,18 14,18 L6,18 C4.8954305,18 4,17.1045695 4,16 L4,3.5 L4,3.5 Z" id="矩形" stroke="#FF3F3F" stroke-width="1.5"></path>
                <line x1="8" y1="7" x2="8" y2="14.5" id="路径-16" stroke="#FF3F3F" stroke-width="1.5"></line>
                <line x1="12" y1="7" x2="12" y2="14.5" id="路径-16备份" stroke="#FF3F3F" stroke-width="1.5"></line>
            </g>
        </g>
    </g>
</svg>
